X:43
T:Maggie Scollard's Slide
B:Terry "Cuz" Teahan "Sliabh Luachra on Parade" 1980
Z:Patrick Cavanagh
M:12/8
L:1/8
R:Slide
K:G
| B2G A2G E2G D3 | EGE D2E G2E D3 | 
B2G A2G E2G D3 | E2G A2A G3 [1]G2A :|[2] G3 | 
|: G2A B2G ABc d2B | c2A BAG A2G E3 | 
G2A B2G ABc d2B | c2A B2A G3 G3 :|| 

